X:969
T:Mick Howard's Polka
S:LP, Terry Teahan, Old Time Irish Music in America (1977)
Z:Nigel Gatherer
L:1/8
M:4/4
K:A
A>F E>F | A>B c2 | e>c B>A | FB Bc/B/ |
A>F E>F | A>B c2 | e>c Bc/B/ | A2 A2 :|
a>f e>f | a>f e>c | e>c B>A | FB Bc/B/ |
A>F E>F | A>B c2 | e>c Bc/B/ | A2 A2 :|
<end>
<start>
